dist/icons/svgs/file-invoice-dollar-solid.svg

<svg xmlns="http://www.w3.org/2000/svg" width="24" height="24" fill="currentcolor" class="icon-file-invoice-dollar-solid" viewBox="0 0 24 24">
  <path d="M7.5 2H13.75V7C13.75 7.70312 14.2969 8.25 15 8.25H20V19.5C20 20.9062 18.8672 22 17.5 22H7.5C6.09375 22 5 20.9062 5 19.5V4.5C5 3.13281 6.09375 2 7.5 2ZM15 2L20 7H15V2ZM7.5 5.125C7.5 5.47656 7.77344 5.75 8.125 5.75H10.625C10.9375 5.75 11.25 5.47656 11.25 5.125C11.25 4.8125 10.9375 4.5 10.625 4.5H8.125C7.77344 4.5 7.5 4.8125 7.5 5.125ZM7.5 7.625C7.5 7.97656 7.77344 8.25 8.125 8.25H10.625C10.9375 8.25 11.25 7.97656 11.25 7.625C11.25 7.3125 10.9375 7 10.625 7H8.125C7.77344 7 7.5 7.3125 7.5 7.625ZM12.5 10.4375C12.1484 10.4375 11.875 10.75 11.875 11.0625V11.7656C11.5234 11.8047 11.2109 11.9219 10.8984 12.0781C10.3906 12.3906 10 12.8984 10 13.6797C10 14.3828 10.3906 14.8516 10.8594 15.125C11.2891 15.3984 11.7969 15.5547 12.2266 15.6719H12.3047C12.7734 15.8281 13.1641 15.9453 13.4375 16.1406C13.6719 16.2578 13.7109 16.4141 13.7109 16.5703C13.75 16.8438 13.6328 17 13.4375 17.1172C13.2031 17.2734 12.8516 17.3516 12.5 17.3125C12.0312 17.3125 11.6016 17.1562 11.0938 17C10.9766 16.9609 10.8984 16.9219 10.8203 16.8828C10.4688 16.8047 10.1172 16.9609 10 17.2734C9.92188 17.625 10.0781 17.9766 10.3906 18.0938C10.4688 18.0938 10.5859 18.1328 10.6641 18.1719C11.0156 18.2891 11.4062 18.4453 11.875 18.5234V19.1875C11.875 19.5391 12.1484 19.8125 12.5 19.8125C12.8125 19.8125 13.125 19.5391 13.125 19.1875V18.5234C13.4375 18.4844 13.7891 18.3672 14.1016 18.1719C14.6094 17.8594 15 17.3125 15 16.5703C14.9609 15.8281 14.5703 15.3594 14.1016 15.0469C13.6719 14.7734 13.125 14.6172 12.6953 14.5H12.6562C12.1484 14.3438 11.7969 14.2266 11.5234 14.0703C11.2891 13.9141 11.25 13.7969 11.25 13.6797C11.25 13.4453 11.3281 13.2891 11.5625 13.1719C11.7969 13.0156 12.1484 12.9375 12.4609 12.9375C12.8516 12.9766 13.2812 13.0547 13.7109 13.1719C14.0625 13.25 14.4141 13.0547 14.4922 12.7031C14.5703 12.3906 14.375 12.0391 14.0625 11.9609C13.75 11.8828 13.4375 11.8047 13.125 11.7656V11.0625C13.125 10.75 12.8125 10.4375 12.5 10.4375Z"/>
</svg>

<svg xmlns="http://www.w3.org/2000/svg" width="24" height="24" fill="currentColor" class="icon-file-invoice-dollar-solid" viewBox="0 0 24 24">
  <path d="M7.5 2h6.25v5c0 .703.547 1.25 1.25 1.25h5V19.5c0 1.406-1.133 2.5-2.5 2.5h-10A2.47 2.47 0 0 1 5 19.5v-15C5 3.133 6.094 2 7.5 2M15 2l5 5h-5zM7.5 5.125c0 .352.273.625.625.625h2.5a.64.64 0 0 0 .625-.625c0-.312-.312-.625-.625-.625h-2.5a.64.64 0 0 0-.625.625m0 2.5c0 .352.273.625.625.625h2.5a.64.64 0 0 0 .625-.625c0-.312-.312-.625-.625-.625h-2.5a.64.64 0 0 0-.625.625m5 2.813a.64.64 0 0 0-.625.624v.704a2.9 2.9 0 0 0-.977.312c-.507.313-.898.82-.898 1.602 0 .703.39 1.172.86 1.445.43.273.937.43 1.367.547h.078c.468.156.86.273 1.133.469.234.117.273.273.273.43.039.273-.078.429-.274.546-.234.156-.585.235-.937.195-.469 0-.898-.156-1.406-.312a2 2 0 0 1-.274-.117c-.351-.078-.703.078-.82.39-.078.352.078.704.39.82.079 0 .196.04.274.079.352.117.742.273 1.211.351v.665c0 .351.273.625.625.625a.64.64 0 0 0 .625-.625v-.665c.313-.039.664-.156.977-.351A1.84 1.84 0 0 0 15 16.57c-.04-.742-.43-1.21-.898-1.523-.43-.274-.977-.43-1.407-.547h-.039c-.508-.156-.86-.273-1.133-.43-.234-.156-.273-.273-.273-.39 0-.235.078-.39.313-.508.234-.156.585-.235.898-.235.39.04.82.118 1.25.235.351.078.703-.117.781-.469.078-.312-.117-.664-.43-.742a8 8 0 0 0-.937-.195v-.703c0-.313-.312-.626-.625-.626"/>
</svg>
